symbolia/scalable/status/battery-missing.svg

<?xml version="1.0" encoding="UTF-8" standalone="no"?>
<svg
   height="24"
   viewBox="0 0 24 24"
   width="24"
   version="1.1"
   id="svg4"
   sodipodi:docname="battery-missing.svg"
   inkscape:version="1.1 (c68e22c387, 2021-05-23)"
   xmlns:inkscape="http://www.inkscape.org/namespaces/inkscape"
   xmlns:sodipodi="http://sodipodi.sourceforge.net/DTD/sodipodi-0.dtd"
   xmlns="http://www.w3.org/2000/svg"
   xmlns:svg="http://www.w3.org/2000/svg">
  <defs
     id="defs8" />
  <sodipodi:namedview
     id="namedview6"
     pagecolor="#ffffff"
     bordercolor="#666666"
     borderopacity="1.0"
     inkscape:pageshadow="2"
     inkscape:pageopacity="0.0"
     inkscape:pagecheckerboard="0"
     showgrid="false"
     inkscape:zoom="47.617188"
     inkscape:cx="9.9123872"
     inkscape:cy="15.939623"
     inkscape:window-width="1920"
     inkscape:window-height="1016"
     inkscape:window-x="0"
     inkscape:window-y="0"
     inkscape:window-maximized="1"
     inkscape:current-layer="svg4" />
  <path
     id="path2"
     d="M 11,2 C 10.45,2 10,2.45 10,3 V 4 H 8.3300781 C 7.6000781,4 7,4.6000781 7,5.3300781 V 20.660156 C 7,21.400156 7.5998438,22 8.3398438,22 H 15.660156 C 16.400156,22 17,21.399922 17,20.669922 V 5.3300781 C 17,4.6000781 16.399922,4 15.669922,4 H 14 V 3 C 14,2.45 13.55,2 13,2 Z m 0.939453,6 c 0.02036,-4.035e-4 0.04008,0 0.06055,0 1.66,0 3,1.34 3,3 0,0.66 -0.269219,1.259453 -0.699219,1.689453 0,0 -0.379922,0.420938 -0.669922,0.710938 -0.14,0.14 -0.270625,0.30875 -0.390625,0.46875 l -0.08984,0.15039 c -0.08,0.12 -0.139455,0.251094 -0.189453,0.371094 -0.0068,0.0039 0.0072,-0.0039 0,0 -0.08667,0.340809 -0.412073,0.593262 -0.763672,0.599609 -0.430917,-5.78e-4 -0.779798,-0.350333 -0.779297,-0.78125 0.0018,-0.112295 0.02385,-0.238516 0.07227,-0.339848 -0.0012,-0.0053 0.0012,0.0054 0,0 0.06,-0.11 0.11071,-0.201605 0.18071,-0.301605 0.03,-0.05 0.07812,-0.117145 0.118119,-0.167145 0.11,-0.14 0.231797,-0.280391 0.341797,-0.400391 l 0.929688,-0.939453 C 13.330543,11.790547 13.5,11.41 13.5,11 13.5,10.17 12.83,9.5 12,9.5 11.35,9.5 10.789844,9.9102348 10.589844,10.490234 10.479844,10.800234 10.200859,11 9.8808594,11 9.3608594,11 8.9999219,10.480234 9.1699219,9.9902344 9.5833594,8.8483594 10.656492,8.0254192 11.939453,8 Z M 12,16 c 0.552285,0 1,0.447715 1,1 0,0.552285 -0.447715,1 -1,1 -0.552285,0 -1,-0.447715 -1,-1 0,-0.552285 0.447715,-1 1,-1 z"
     sodipodi:nodetypes="sscsssssssscsssssscsccccccccccccsscscssssss" />
</svg>

<svg xmlns="http://www.w3.org/2000/svg" height="24" viewBox="0 0 24 24" width="24"><path d="M15.67 4H14V3c0-.55-.45-1-1-1h-2c-.55 0-1 .45-1 1v1H8.33C7.6 4 7 4.6 7 5.33v15.33C7 21.4 7.6 22 8.34 22h7.32c.74 0 1.34-.6 1.34-1.33V5.33C17 4.6 16.4 4 15.67 4zM13 18h-2v-2h2v2zm1.3-5.31s-.38.42-.67.71c-.14.14-.27.31-.39.47l-.09.15c-.08.12-.14.25-.19.37-.09.22-.16.43-.16.61h-1.6c0-.42.12-.8.29-1.13.06-.11.13-.21.2-.31.03-.05.06-.11.1-.16.11-.14.23-.28.34-.4l.93-.94c.27-.27.44-.65.44-1.06 0-.83-.67-1.5-1.5-1.5-.65 0-1.21.41-1.41.99-.11.31-.39.51-.71.51-.52 0-.88-.52-.71-1.01C9.59 8.83 10.69 8 12 8c1.66 0 3 1.34 3 3 0 .66-.27 1.26-.7 1.69z"/></svg>
